X: 1
T: Garcon Volange
T: The Fickle Lad. As played by Winston Scotty Fitzgerald
C: Trad (Cape Breton)
R: jig
M: 6/8
L: 1/8
K: Gmaj
|: GdB GdB |Adc Adc|Bgg gfg|baa a2B|
GdB GdB |Adc Adc|Bgg fef|1agg g2B:|2 agg gfg||
b3 g3|a3 a^ga|c'3 f3|agg gfg|
b3 g3|a3 a^ga|c'3 f3|gba gfe|
|:~d3 cBc|~d3 cBc|d2B g2d|bag fed|
~c3 AFA|~c3AFA| ced cBA |1 GBA GBc:| [2 GBA G3||